packages/kaspersky-hexa-ui-icons/src/iconsSVGs/24/PremiumCrown.svg

<svg width="24" height="24" viewBox="0 0 24 24" fill="none" xmlns="http://www.w3.org/2000/svg">
<path fill-rule="evenodd" clip-rule="evenodd" d="M12.9153 3.57015C12.4799 2.91705 11.5202 2.91704 11.0847 3.57015L7.84458 8.43041L3.87782 4.46365C3.18485 3.77068 2 4.26149 2 5.24147V18C2 19.6569 3.34315 21 5 21H19C20.6569 21 22 19.6569 22 18V5.24147C22 4.26148 20.8152 3.77068 20.1222 4.46365L16.1554 8.43041L12.9153 3.57015ZM20 15V7.41426L16.7934 10.6209C16.3025 11.1117 15.4853 11.0308 15.1003 10.4533L12 5.80282L8.89971 10.4533C8.51467 11.0308 7.69748 11.1117 7.20664 10.6209L4 7.41426V15H20ZM4 17H20V18C20 18.5523 19.5523 19 19 19H5C4.44772 19 4 18.5523 4 18V17Z" fill="black"/>
</svg>

<svg xmlns="http://www.w3.org/2000/svg" width="24" height="24" fill="none" viewBox="0 0 24 24"><path fill="#000" fill-rule="evenodd" d="M12.9153 3.5702c-.4354-.6531-1.3951-.6532-1.8306 0L7.8446 8.4304 3.8778 4.4637C3.1848 3.7707 2 4.2615 2 5.2415V18c0 1.6569 1.3432 3 3 3h14c1.6569 0 3-1.3431 3-3V5.2415c0-.98-1.1848-1.4708-1.8778-.7778l-3.9668 3.9667zM20 15V7.4143l-3.2066 3.2066c-.4909.4908-1.3081.4099-1.6931-.1676L12 5.8028l-3.1003 4.6505c-.385.5775-1.2022.6584-1.693.1676L4 7.4143V15zM4 17h16v1c0 .5523-.4477 1-1 1H5c-.5523 0-1-.4477-1-1z"/></svg>
